X:1
T:Ten Sticks of Dynamite
M:4/4
L:1/8
K:F
 F2 F3/2 F/2 F3/2 G/2 A2| G3/2 F/2 G3/2 A/2 F4| A2 A3/2 A/2 A3/2 B/2 c2|\
 B3/2 A/2 B3/2 c/2 A2 F3/2 F/2| B2 B3/2 A/2 B3/2 c/2 d3/2 B/2| c2 c3/2 A/2 c2 C3/2 C/2|\
 F2 F3/2 F/2 F3/2 G/2 A3/2 F/2| G2 F3/2 E/2 F2||
